X: 25132
T: Máirseáil Na Fuiseoige
R: jig
M: 6/8
K: Dmajor
|:~A3 AFA|~A3 AdB|AFE DFA|~B3 BdB|
~A3 AFA|ABc def|gfe fed|1 edA ~B3:|2 edB d2d||
|:fdd edd|fdB ~d3|fdd edB|BAB d2d|
fdd edd|fdd fga|gfe fed|1 edB d2d:|2 edA ~B3||

